X: 100181
M: 6/8
L: 1/8
Q: "Lively."
K: Cm
uB |\
(.G2.G) {GA}G>^FG | Ccc (.c2.d) | {d}(.e2.e) {d}e>de | dff (.f2.b) |\
{e}(.g2.g) gfe | {d}(.f2.f) fed | (.c2.d) (c/d/)ec | BGG G2 :|
u(G/F/) |\
EGE DFD | Ccc (.c2.d) | ege dbB | dff (.f2.b) |\
{e}(.g2.g) gfe | {d}(.f2.f) fed | (c2d) (c/d/)ec | BGG G2 |]
EGE DFD | Ccc (.c2.d) | ege dbB | dff f2E/F/ |\


